src/16/panel/cisco-tray-disconnecting.svg

<svg xmlns="http://www.w3.org/2000/svg" width="16" height="16" version="1.1">
 <defs>
  <style id="current-color-scheme" type="text/css">
   .ColorScheme-Text { color:#dfdfdf; } .ColorScheme-Highlight { color:#4285f4; }
  </style>
 </defs>
 <path style="opacity:0.3;fill:currentColor" class="ColorScheme-Text" d="M 8 1 A 7 7 0 0 0 1.7871094 4.7871094 A 7 7 0 0 1 5 4 A 7 7 0 0 1 6.2597656 4.1171875 A 7 7 0 0 1 8.1074219 1.0058594 A 7 7 0 0 0 8 1 z M 9.4726562 1.1601562 A 6 6 0 0 0 7.2304688 4.375 A 7 7 0 0 1 12 11 A 7 7 0 0 1 11.933594 11.900391 A 6 6 0 0 0 13 12 A 6 6 0 0 0 13.785156 11.941406 A 7 7 0 0 0 15 8 A 7 7 0 0 0 9.4726562 1.1601562 z M 5 5 A 6 6 0 0 0 1.203125 6.359375 A 7 7 0 0 0 1 8 A 7 7 0 0 0 8 15 A 7 7 0 0 0 9.6367188 14.796875 A 6 6 0 0 0 10.769531 12.625 A 7 7 0 0 1 6 6 A 7 7 0 0 1 6.0664062 5.0996094 A 6 6 0 0 0 5 5 z M 7.0351562 5.3632812 A 6 6 0 0 0 7 6 A 6 6 0 0 0 10.964844 11.636719 A 6 6 0 0 0 11 11 A 6 6 0 0 0 7.0351562 5.3632812 z M 11.740234 12.882812 A 7 7 0 0 1 11.212891 14.216797 A 7 7 0 0 0 12.900391 12.996094 A 7 7 0 0 1 11.740234 12.882812 z"/>
</svg>

<svg xmlns="http://www.w3.org/2000/svg" width="16" height="16"><defs><style id="current-color-scheme" type="text/css"></style></defs><path d="M8 1a7 7 0 0 0-6.213 3.787A7 7 0 0 1 5 4a7 7 0 0 1 1.26.117 7 7 0 0 1 1.847-3.111A7 7 0 0 0 8 1zm1.473.16A6 6 0 0 0 7.23 4.375 7 7 0 0 1 12 11a7 7 0 0 1-.066.9A6 6 0 0 0 13 12a6 6 0 0 0 .785-.059A7 7 0 0 0 15 8a7 7 0 0 0-5.527-6.84zM5 5a6 6 0 0 0-3.797 1.36A7 7 0 0 0 1 8a7 7 0 0 0 7 7 7 7 0 0 0 1.637-.203 6 6 0 0 0 1.133-2.172A7 7 0 0 1 6 6a7 7 0 0 1 .066-.9A6 6 0 0 0 5 5zm2.035.363A6 6 0 0 0 7 6a6 6 0 0 0 3.965 5.637A6 6 0 0 0 11 11a6 6 0 0 0-3.965-5.637zm4.705 7.52a7 7 0 0 1-.527 1.334 7 7 0 0 0 1.687-1.22 7 7 0 0 1-1.16-.114z" opacity=".3" fill="currentColor" color="#bebebe"/></svg>
